common/resources/src/main/resources/base/media/delete.svg

<?xml version="1.0" encoding="UTF-8"?>
<svg width="24px" height="24px" viewBox="0 0 24 24" version="1.1" xmlns="http://www.w3.org/2000/svg" xmlns:xlink="http://www.w3.org/1999/xlink">
    <title>删除</title>
    <defs>
        <path d="M5.629,7.5 L6.72612901,18.4738834 C6.83893748,19.6019681 7.77211147,20.4662096 8.89848718,20.4990325 L8.96496269,20.5 L15.0342282,20.5 C16.1681898,20.5 17.1211231,19.6570911 17.2655686,18.5392856 L17.2731282,18.4732196 L18.1924161,9.2527383 L18.369,7.5 L19.877,7.5 L19.6849078,9.40262938 L18.7657282,18.6220326 C18.5772847,20.512127 17.0070268,21.9581787 15.1166184,21.9991088 L15.0342282,22 L8.96496269,22 C7.06591715,22 5.47142703,20.5815579 5.24265599,18.7050136 L5.23357322,18.6231389 L4.121,7.5 L5.629,7.5 Z M10.25,11.75 C10.6642136,11.75 11,12.0857864 11,12.5 L11,18.5 C11,18.9142136 10.6642136,19.25 10.25,19.25 C9.83578644,19.25 9.5,18.9142136 9.5,18.5 L9.5,12.5 C9.5,12.0857864 9.83578644,11.75 10.25,11.75 Z M13.75,11.75 C14.1642136,11.75 14.5,12.0857864 14.5,12.5 L14.5,18.5 C14.5,18.9142136 14.1642136,19.25 13.75,19.25 C13.3357864,19.25 13,18.9142136 13,18.5 L13,12.5 C13,12.0857864 13.3357864,11.75 13.75,11.75 Z M12,1.75 C13.7692836,1.75 15.2083571,3.16379796 15.2491124,4.92328595 L15.25,5 L21,5 C21.4142136,5 21.75,5.33578644 21.75,5.75 C21.75,6.14942022 21.43777,6.47591522 21.0440682,6.49872683 L21,6.5 L14.5,6.5 C14.1005798,6.5 13.7740848,6.18777001 13.7512732,5.7940682 L13.75,5.75 L13.75,5 C13.75,4.03350169 12.9664983,3.25 12,3.25 C11.0536371,3.25 10.2827253,4.00119585 10.2510148,4.93983756 L10.25,5 L10.25,5.75 C10.25,6.14942022 9.93777001,6.47591522 9.5440682,6.49872683 L9.5,6.5 L2.75,6.5 C2.33578644,6.5 2,6.16421356 2,5.75 C2,5.35057978 2.31222999,5.02408478 2.7059318,5.00127317 L2.75,5 L8.75,5 C8.75,3.20507456 10.2050746,1.75 12,1.75 Z" id="path-1"></path>
    </defs>
    <g id="删除" stroke="none" stroke-width="1" fill="none" fill-rule="evenodd">
        <mask id="mask-2" fill="white">
            <use xlink:href="#path-1"></use>
        </mask>
        <use id="形状结合" fill="#182431" fill-rule="nonzero" xlink:href="#path-1"></use>
    </g>
</svg>

<?xml version="1.0" encoding="utf-8"?>
<!-- Generator: Adobe Illustrator 23.0.1, SVG Export Plug-In . SVG Version: 6.00 Build 0)  -->
<svg version="1.1" id="图层_1" xmlns="http://www.w3.org/2000/svg" xmlns:xlink="http://www.w3.org/1999/xlink" x="0px" y="0px"
	 viewBox="0 0 24 24" style="enable-background:new 0 0 24 24;" xml:space="preserve">
<style type="text/css">
	.st0{fill:#182431;}
</style>
<title>删除</title>
<path class="st0" d="M5.6,7.5l1.1,11c0.1,1.1,1,2,2.2,2l0.1,0H15c1.1,0,2.1-0.8,2.2-2l0-0.1l0.9-9.2l0.2-1.8h1.5l-0.2,1.9l-0.9,9.2
	C18.6,20.5,17,22,15.1,22L15,22H9c-1.9,0-3.5-1.4-3.7-3.3l0-0.1L4.1,7.5H5.6z M10.2,11.7c0.4,0,0.8,0.3,0.8,0.8v6
	c0,0.4-0.3,0.8-0.8,0.8s-0.8-0.3-0.8-0.8v-6C9.5,12.1,9.8,11.7,10.2,11.7z M13.8,11.7c0.4,0,0.8,0.3,0.8,0.8v6
	c0,0.4-0.3,0.8-0.8,0.8S13,18.9,13,18.5v-6C13,12.1,13.3,11.7,13.8,11.7z M12,1.7c1.8,0,3.2,1.4,3.2,3.2l0,0.1H21
	c0.4,0,0.8,0.3,0.8,0.8c0,0.4-0.3,0.7-0.7,0.7l0,0h-6.5c-0.4,0-0.7-0.3-0.7-0.7l0,0V5c0-1-0.8-1.7-1.8-1.7c-0.9,0-1.7,0.8-1.7,1.7
	l0,0.1v0.8c0,0.4-0.3,0.7-0.7,0.7l0,0H2.8C2.3,6.5,2,6.2,2,5.7C2,5.4,2.3,5,2.7,5l0,0h6C8.8,3.2,10.2,1.7,12,1.7z"/>
</svg>
